Kaze-dark-colors/24x24/places/folder.svg

<?xml version="1.0" encoding="UTF-8" standalone="no"?>
<svg xmlns:inkscape="http://www.inkscape.org/namespaces/inkscape" xmlns:sodipodi="http://sodipodi.sourceforge.net/DTD/sodipodi-0.dtd" xmlns="http://www.w3.org/2000/svg" xmlns:svg="http://www.w3.org/2000/svg" width="24" height="24" viewBox="0 0 24 24" fill="none" version="1.1" id="svg4" sodipodi:docname="folder.svg" inkscape:version="1.4 (e7c3feb100, 2024-10-09)">
    <sodipodi:namedview id="namedview4" pagecolor="#ffffff" bordercolor="#ffffff" borderopacity="0.25" inkscape:showpageshadow="2" inkscape:pageopacity="0.0" inkscape:pagecheckerboard="0" inkscape:deskcolor="#d1d1d1" inkscape:zoom="33.291667" inkscape:cx="9.2515645" inkscape:cy="13.531915" inkscape:window-width="1920" inkscape:window-height="1008" inkscape:window-x="0" inkscape:window-y="0" inkscape:window-maximized="1" inkscape:current-layer="g4"/>
    <defs id="defs1">
        <style id="current-color-scheme" type="text/css">
        .ColorScheme-Text { color:#e6f0f5; }
        .ColorScheme-Highlight { color:#2179cb; }
        .ColorScheme-Background { color:#e4e4e4; }
    </style>
    </defs>
    <g clip-path="url(#clip0_929_207)" id="g4">
        <path id="path3" stroke="#ffffff" d="M 5,10.5 V 6 C 5,4.89543 5.89543,4 7,4 h 2.17157 c 0.53044,0 1.03913,0.21071 1.41423,0.58579 l 0.8284,0.82842 C 11.7893,5.78929 12.298,6 12.8284,6 H 17 c 1.1046,0 2,0.89543 2,2 v 0.5 m -15,3 V 18 c 0,1.1046 0.89543,2 2,2 h 12 c 1.1046,0 2,-0.8954 2,-2 V 9.5 c 0,-0.55228 -0.4477,-1 -1,-1 h -7.1716 c -0.5304,0 -1.0391,0.21071 -1.4142,0.58579 L 9.58579,9.91421 C 9.21071,10.2893 8.70201,10.5 8.17157,10.5 H 5 c -0.55228,0 -1,0.4477 -1,1 z"/>
        <path id="path4" style="stroke:currentColor;opacity:0.5" class="ColorScheme-Highlight" d="M 5,10.5 V 6 C 5,4.89543 5.89543,4 7,4 h 2.17157 c 0.53044,0 1.03913,0.21071 1.41423,0.58579 l 0.8284,0.82842 C 11.7893,5.78929 12.298,6 12.8284,6 H 17 c 1.1046,0 2,0.89543 2,2 v 0.5 m -15,3 V 18 c 0,1.1046 0.89543,2 2,2 h 12 c 1.1046,0 2,-0.8954 2,-2 V 9.5 c 0,-0.55228 -0.4477,-1 -1,-1 h -7.1716 c -0.5304,0 -1.0391,0.21071 -1.4142,0.58579 L 9.58579,9.91421 C 9.21071,10.2893 8.70201,10.5 8.17157,10.5 H 5 c -0.55228,0 -1,0.4477 -1,1 z"/>
    </g>
    <defs id="defs4">
        <clipPath id="clip0_929_207">
            <rect width="24" height="24" fill="white" id="rect4"/>
        </clipPath>
    </defs>
</svg>

<svg width="24" height="24" viewBox="0 0 24 24" fill="none" xmlns="http://www.w3.org/2000/svg">
<g clip-path="url(#clip0_3017_2252)">
<mask id="mask0_3017_2252" style="mask-type:luminance" maskUnits="userSpaceOnUse" x="0" y="0" width="24" height="24">
<path d="M24 0H0V24H24V0Z" fill="white"/>
</mask>
<g mask="url(#mask0_3017_2252)">
<path d="M4 11.5V18C4 19.1046 4.89543 20 6 20H18C19.1046 20 20 19.1046 20 18V9.5C20 8.94772 19.5523 8.5 19 8.5H11.8284C11.298 8.5 10.7893 8.71071 10.4142 9.08579L9.58579 9.91421C9.21071 10.2893 8.70201 10.5 8.17157 10.5H5C4.44772 10.5 4 10.9477 4 11.5Z" stroke="#DDDDDD" stroke-width="1.2" stroke-linecap="round"/>
<path d="M5 10.5V6C5 4.89543 5.89543 4 7 4H9.17157C9.70201 4 10.2107 4.21071 10.5858 4.58579L11.4142 5.41421C11.7893 5.78929 12.298 6 12.8284 6H17C18.1046 6 19 6.89543 19 8V8.5" stroke="#DDDDDD" stroke-width="1.2" stroke-linecap="round" stroke-linejoin="round"/>
</g>
</g>
<defs>
<clipPath id="clip0_3017_2252">
<rect width="24" height="24" fill="white"/>
</clipPath>
</defs>
</svg>
